X:16
T:Pretty Grace
C:Roy Watrous, 1987
S:The Watrous Book, 1992
M:6/8
L:1/8
Q:1/8=270
K:D
%%MIDI program 72
%%MIDI transpose 8
%%MIDI ratio 3 1
A|DFA EGB|Adf e2f|afd gec|def A2A|DFA EGB|
Adf e2f|afd gec|dfe d2::z|b3 a3|gfe f2g|afd gec|def A3|
b3 a3|gfe f2g|afd gec|dfe d2::z|Tf3 efe|def A2f|
aAg fAe|def A2e|Tf3 efe|def A2f|afd gec|dfe d2:|]

